X:77
T:Ash Plant, The
M:C|
L:1/8
Q:120
R:Reel (Key of Edor)
K:Edor
"Em"BE~E2 BEGA | BEEF "D"~G3A |1 
"Em"BE~E2 BABd | "D"edBG A2GA :|2 "Em"~B3A (3Bcd ef |"D"gedB A2GA |: 
"Em"B2eB fBeB|~B2ed "D"BAGA |1
"Em"B2eB ~f3e | "D"dedB ADFA :|2 "G"(3Bcd ef gage | "D"dedB ADFA|]
